site/assets/images/404/square.svg

<?xml version="1.0" encoding="UTF-8" standalone="no"?>
<svg width="188px" height="211px" viewBox="0 0 188 211" version="1.1" xmlns="http://www.w3.org/2000/svg" xmlns:xlink="http://www.w3.org/1999/xlink" xmlns:sketch="http://www.bohemiancoding.com/sketch/ns">
    <!-- Generator: Sketch 3.4.3 (16044) - http://www.bohemiancoding.com/sketch -->
    <title>square</title>
    <desc>Created with Sketch.</desc>
    <defs></defs>
    <g id="Page-1" stroke="none" stroke-width="1" fill="none" fill-rule="evenodd" sketch:type="MSPage">
        <g id="square" sketch:type="MSLayerGroup">
            <path d="M76.6818824,88.5741075 C76.6818824,88.5741075 170.647126,151.063868 171.391227,151.606665 L173.801524,153.405968 C173.801524,153.405968 173.55349,153.879135 172.809916,154.467298 C172.570835,154.657197 171.775126,155.289143 171.775126,155.289143 C171.189535,155.720638 98.6894678,209.096252 97.8084482,209.699713 C95.4587115,211.30806 92.9699496,210.562175 91.8451092,209.759848 C91.1262857,209.250283 2.84580392,150.05898 2.35394958,149.703972 C0.935260504,148.688535 0.458151261,147.009502 0.458151261,147.009502 L1.93266106,145.770405 C1.93266106,145.770405 73.6786218,88.9349175 73.9830028,88.6933225 L75.2631933,87.64096 L76.6818824,88.5741075" id="Fill-1" fill="#696CB4" sketch:type="MSShapeGroup"></path>
            <path d="M98.9274958,103.363625 L40.620112,147.464207 C40.620112,147.464207 37.7927395,149.36901 41.4268796,151.97486 C45.2895686,154.744235 76.7392829,174.608302 76.7392829,174.608302 C76.7392829,174.608302 79.592986,176.366987 82.3624314,174.39994 C86.0165826,171.804112 142.25228,132.17673 142.25228,132.17673 L98.9274958,103.363625" id="Fill-2" fill="#4A4E84" sketch:type="MSShapeGroup"></path>
            <path d="M75.6434062,86.2668225 C75.6834286,86.0990775 95.8199664,2.13743 95.9558319,1.870515 L96.3734342,0.23843 C96.3734342,0.23843 97.4103305,0.19412 98.2513277,0.3191375 C99.163944,0.454705 100.11395,1.05289 100.11395,1.05289 C100.11395,1.05289 184.234207,57.650475 185.469109,58.5266525 C187.730375,60.1323625 187.819373,62.5725775 187.728796,63.0874175 C187.710364,63.1908075 174.910566,149.066753 174.789972,149.872772 C174.789972,149.872772 174.691496,150.795898 174.559843,151.40516 C174.296538,152.634235 173.801524,153.404912 173.801524,153.404912 L171.499709,151.688427 C171.023653,151.32709 77.6134566,89.1944475 76.5507563,88.50817 L75.2631933,87.64096 L75.6434062,86.2668225" id="Fill-3" fill="#8384E3" sketch:type="MSShapeGroup"></path>
            <path d="M98.9311821,103.363097 L109.884683,47.224965 C109.884683,47.224965 110.494499,43.8669 114.33349,46.1588875 C118.414196,48.5959375 149.18037,69.50551 149.18037,69.50551 C149.18037,69.50551 151.932437,71.420335 151.24205,74.7504425 C150.331541,79.14399 142.255966,132.17673 142.255966,132.17673 L98.9311821,103.363097" id="Fill-4" fill="#696CB4" sketch:type="MSShapeGroup"></path>
            <path d="M74.3679552,88.4010875 C73.9303417,88.7502925 5.13445378,143.232603 4.51463305,143.724232 L0.483955182,147.084935 C0.483955182,147.084935 -0.0647731092,145.67651 0.22907563,144.583002 C0.453411765,143.746387 0.931047619,141.569395 0.931047619,141.569395 C0.982128852,141.08937 18.2017703,68.94425 18.3713389,68.1862325 C18.5746106,67.2789325 19.2576246,66.21602 19.5677983,65.946995 C19.8753389,65.68008 91.1552493,3.4989075 91.5596863,3.144955 C91.5596863,3.144955 92.7019048,2.1126375 93.5508011,1.4353275 C94.802028,0.4372975 96.375014,0.23843 96.375014,0.23843 L95.0479552,5.5572125 C95.0479552,5.5572125 75.8540504,85.3869525 75.585479,86.5073625 L75.2631933,87.64096 L74.3679552,88.4010875" id="Fill-5" fill="#CCD0FF" sketch:type="MSShapeGroup"></path>
            <path d="M99.9533333,104.061507 L41.645423,148.162617 C41.645423,148.162617 38.8180504,150.06742 42.4521905,152.672742 C46.3148796,155.442117 77.7645938,175.306712 77.7645938,175.306712 C77.7645938,175.306712 80.6182969,177.065397 83.3882689,175.09835 C87.0418936,172.502522 143.277591,132.87514 143.277591,132.87514 L99.9533333,104.061507" id="Fill-6" fill="#D79245" sketch:type="MSShapeGroup"></path>
            <path d="M103.351552,108.47088 L77.3554174,128.07278 C77.3554174,128.07278 74.5275182,129.977582 78.1621849,132.583432 C82.0248739,135.352807 104.104605,149.579482 104.104605,149.579482 C104.104605,149.579482 106.957782,151.338167 109.727754,149.37112 C113.381905,146.775292 137.89563,131.422405 137.89563,131.422405 L103.351552,108.47088" id="Fill-7" fill="#BA7749" sketch:type="MSShapeGroup"></path>
            <path d="M104.878723,107.309325 L78.8825882,126.910697 C78.8825882,126.910697 76.0552157,128.816027 79.6893557,131.42135 C83.5520448,134.190725 105.783966,148.5651 105.783966,148.5651 C105.783966,148.5651 108.637669,150.323785 111.407641,148.356737 C115.061266,145.76091 139.574992,130.408022 139.574992,130.408022 L104.878723,107.309325" id="Fill-8" fill="#D8A173" sketch:type="MSShapeGroup"></path>
            <path d="M79.8041569,167.17319 C78.8020168,168.10159 77.3332997,168.144845 76.5238992,167.26814 C75.7155518,166.39249 75.8724818,164.929733 76.8746218,164.001332 C77.8772885,163.072405 79.3449524,163.02915 80.1538263,163.905327 C80.9627003,164.781505 80.8062969,166.244262 79.8041569,167.17319" id="Fill-9" fill="#BC7835" sketch:type="MSShapeGroup"></path>
            <path d="M70.055014,161.238287 C69.0528739,162.166687 67.5841569,162.209942 66.7752829,161.333237 C65.9669356,160.457587 66.1238655,158.99483 67.125479,158.06643 C68.1281457,157.137502 69.5958095,157.094247 70.4046835,157.970425 C71.2135574,158.846602 71.0576807,160.30936 70.055014,161.238287" id="Fill-10" fill="#BC7835" sketch:type="MSShapeGroup"></path>
            <path d="M59.8751036,154.50897 C58.8729636,155.43737 57.4042465,155.480625 56.5953725,154.60392 C55.7870252,153.72827 55.9434286,152.265512 56.9455686,151.337112 C57.9482353,150.408185 59.4158992,150.36493 60.2247731,151.241107 C61.0336471,152.117285 60.8777703,153.580042 59.8751036,154.50897" id="Fill-11" fill="#BC7835" sketch:type="MSShapeGroup"></path>
            <path d="M97.553042,152.482842 C96.550902,153.41177 95.0821849,153.455025 94.2733109,152.57832 C93.464437,151.70267 93.6213669,150.239912 94.623507,149.311512 C95.6261737,148.382585 97.0938375,148.338802 97.9027115,149.215507 C98.7115854,150.091685 98.5551821,151.554442 97.553042,152.482842" id="Fill-12" fill="#BC7835" sketch:type="MSShapeGroup"></path>
            <path d="M87.8038992,146.54794 C86.8017591,147.476867 85.333042,147.520122 84.5241681,146.643417 C83.7158207,145.767767 83.8727507,144.30501 84.8743641,143.37661 C85.8770308,142.447682 87.3446947,142.4039 88.1535686,143.280605 C88.9629692,144.156782 88.8065658,145.61954 87.8038992,146.54794" id="Fill-13" fill="#BC7835" sketch:type="MSShapeGroup"></path>
            <path d="M77.6239888,139.81915 C76.6218487,140.74755 75.1531317,140.790805 74.3442577,139.9141 C73.5359104,139.03845 73.6928403,137.575693 74.6944538,136.647292 C75.6971204,135.718365 77.1647843,135.67511 77.9736583,136.551288 C78.7830588,137.427465 78.6266555,138.890222 77.6239888,139.81915" id="Fill-14" fill="#BC7835" sketch:type="MSShapeGroup"></path>
            <path d="M84.6895238,156.86584 C83.6873838,157.79424 82.2186667,157.837495 81.4097927,156.961318 C80.6014454,156.085667 80.7578487,154.62291 81.7599888,153.693983 C82.7626555,152.765582 84.2303193,152.7218 85.0391933,153.598505 C85.8485938,154.474155 85.6921905,155.936913 84.6895238,156.86584" id="Fill-15" fill="#BC7835" sketch:type="MSShapeGroup"></path>
            <path d="M94.4318207,163.109858 C93.4296807,164.038258 91.9609636,164.081513 91.1520896,163.205335 C90.3437423,162.329158 90.5006723,160.8664 91.5022857,159.938 C92.5049524,159.0096 93.9726162,158.965818 94.7814902,159.842523 C95.5908908,160.718173 95.4344874,162.18093 94.4318207,163.109858" id="Fill-16" fill="#BC7835" sketch:type="MSShapeGroup"></path>
            <path d="M73.6638768,149.96403 C72.6612101,150.89243 71.192493,150.935685 70.383619,150.05898 C69.5752717,149.18333 69.7322017,147.720572 70.7338151,146.792172 C71.7370084,145.863245 73.2046723,145.81999 74.0135462,146.696167 C74.8224202,147.572345 74.6660168,149.035102 73.6638768,149.96403" id="Fill-17" fill="#BC7835" sketch:type="MSShapeGroup"></path>
            <path d="M62.9178599,142.794777 C61.9151933,143.723177 60.4464762,143.76696 59.6376022,142.890255 C58.8292549,142.014605 58.9861849,140.551847 59.9877983,139.623447 C60.990465,138.69452 62.4586555,138.650737 63.2675294,139.527442 C64.0764034,140.40362 63.92,141.86585 62.9178599,142.794777" id="Fill-18" fill="#BC7835" sketch:type="MSShapeGroup"></path>
            <path d="M99.9533333,104.061507 L110.906835,47.9239025 C110.906835,47.9239025 111.51665,44.56531 115.355641,46.857825 C119.436347,49.2943475 150.202521,70.20392 150.202521,70.20392 C150.202521,70.20392 152.954062,72.118745 152.264202,75.4488525 C151.353165,79.8424 143.277591,132.87514 143.277591,132.87514 L99.9533333,104.061507" id="Fill-19" fill="#EFB47F" sketch:type="MSShapeGroup"></path>
            <path d="M123.373289,61.2728175 C123.373289,62.5841825 122.518599,63.6465675 121.464325,63.6465675 C120.41005,63.6465675 119.555361,62.5841825 119.555361,61.2728175 C119.555361,59.96198 120.41005,58.8990675 121.464325,58.8990675 C122.518599,58.8990675 123.373289,59.96198 123.373289,61.2728175" id="Fill-20" fill="#D69144" sketch:type="MSShapeGroup"></path>
            <path d="M134.070857,67.5817175 C134.070857,68.8930825 133.206162,69.9554675 132.138723,69.9554675 C131.07181,69.9554675 130.207115,68.8930825 130.207115,67.5817175 C130.207115,66.27088 131.07181,65.2079675 132.138723,65.2079675 C133.206162,65.2079675 134.070857,66.27088 134.070857,67.5817175" id="Fill-21" fill="#D69144" sketch:type="MSShapeGroup"></path>
            <path d="M143.614095,74.0625825 C143.614095,75.3739475 142.712538,76.4363325 141.600336,76.4363325 C140.487608,76.4363325 139.58605,75.3739475 139.58605,74.0625825 C139.58605,72.751745 140.487608,71.6888325 141.600336,71.6888325 C142.712538,71.6888325 143.614095,72.751745 143.614095,74.0625825" id="Fill-22" fill="#D69144" sketch:type="MSShapeGroup"></path>
            <path d="M119.34577,81.2460775 C119.34577,82.556915 118.491081,83.6198275 117.436807,83.6198275 C116.382532,83.6198275 115.527843,82.556915 115.527843,81.2460775 C115.527843,79.9347125 116.382532,78.8723275 117.436807,78.8723275 C118.491081,78.8723275 119.34577,79.9347125 119.34577,81.2460775" id="Fill-23" fill="#D69144" sketch:type="MSShapeGroup"></path>
            <path d="M130.042812,87.55445 C130.042812,88.865815 129.178644,89.9282 128.110678,89.9282 C127.044291,89.9282 126.17907,88.865815 126.17907,87.55445 C126.17907,86.2436125 127.044291,85.1807 128.110678,85.1807 C129.178644,85.1807 130.042812,86.2436125 130.042812,87.55445" id="Fill-24" fill="#D69144" sketch:type="MSShapeGroup"></path>
            <path d="M139.58605,94.0358425 C139.58605,95.34668 138.68502,96.4095925 137.572291,96.4095925 C136.46009,96.4095925 135.558532,95.34668 135.558532,94.0358425 C135.558532,92.7244775 136.46009,91.6620925 137.572291,91.6620925 C138.68502,91.6620925 139.58605,92.7244775 139.58605,94.0358425" id="Fill-25" fill="#D69144" sketch:type="MSShapeGroup"></path>
            <path d="M116.369367,68.6557075 C116.369367,69.9670725 115.514151,71.0294575 114.460403,71.0294575 C113.406129,71.0294575 112.55144,69.9670725 112.55144,68.6557075 C112.55144,67.34487 113.406129,66.2819575 114.460403,66.2819575 C115.514151,66.2819575 116.369367,67.34487 116.369367,68.6557075" id="Fill-26" fill="#D69144" sketch:type="MSShapeGroup"></path>
            <path d="M126.142734,74.0625825 C126.142734,75.3739475 125.278566,76.4363325 124.210599,76.4363325 C123.144213,76.4363325 122.278992,75.3739475 122.278992,74.0625825 C122.278992,72.751745 123.144213,71.6888325 124.210599,71.6888325 C125.278566,71.6888325 126.142734,72.751745 126.142734,74.0625825" id="Fill-27" fill="#D69144" sketch:type="MSShapeGroup"></path>
            <path d="M136.946151,80.227475 C136.946151,81.5383125 136.044594,82.601225 134.932392,82.601225 C133.819664,82.601225 132.918106,81.5383125 132.918106,80.227475 C132.918106,78.9166375 133.819664,77.853725 134.932392,77.853725 C136.044594,77.853725 136.946151,78.9166375 136.946151,80.227475" id="Fill-28" fill="#D69144" sketch:type="MSShapeGroup"></path>
            <path d="M146.883821,86.3026925 C146.883821,87.6140575 145.982263,88.6764425 144.870062,88.6764425 C143.757333,88.6764425 142.855776,87.6140575 142.855776,86.3026925 C142.855776,84.991855 143.757333,83.9289425 144.870062,83.9289425 C145.982263,83.9289425 146.883821,84.991855 146.883821,86.3026925" id="Fill-29" fill="#D69144" sketch:type="MSShapeGroup"></path>
            <path d="M105.292112,105.215677 L109.194824,86.0579325 C109.194824,86.0579325 109.804639,82.69934 113.64363,84.991855 C117.724336,87.4283775 141.022118,103.587285 141.022118,103.587285 C141.022118,103.587285 143.774185,105.501582 143.083798,108.83169 C142.173289,113.225765 139.913602,128.295912 139.913602,128.295912 L105.292112,105.215677" id="Fill-30" fill="#F9D9BB" sketch:type="MSShapeGroup"></path>
            <path d="M104.863978,107.327787 L108.766162,88.169515 C108.766162,88.169515 109.375978,84.81145 113.214969,87.103965 C117.295675,89.5404875 140.68298,105.698868 140.68298,105.698868 C140.68298,105.698868 143.435048,107.613692 142.744661,110.9438 C141.834151,115.337348 139.574992,130.408022 139.574992,130.408022 L104.863978,107.327787" id="Fill-31" fill="#F8CDA1" sketch:type="MSShapeGroup"></path>
            <path d="M84.7995854,115.5225 L62.3296359,115.5225 C61.82093,115.5225 61.4080672,115.10894 61.4080672,114.599375 C61.4080672,114.08981 61.82093,113.67625 62.3296359,113.67625 L87.241479,113.67625" id="Fill-32" fill="#4A4E84" sketch:type="MSShapeGroup"></path>
            <path d="M60.3648515,134.003463 L57.7075742,126.179583 C57.5432717,125.69692 57.8018375,125.172585 58.2836863,125.008005 C58.7650084,124.843953 59.288986,125.1019 59.4527619,125.58509 L61.9125602,132.829775" id="Fill-33" fill="#4A4E84" sketch:type="MSShapeGroup"></path>
            <path d="M116.394118,151.821358 L114.597849,167.629478 C114.540448,168.136405 114.083877,168.50038 113.578331,168.442355 C113.072258,168.384858 112.708896,167.927515 112.766824,167.420588 L114.383518,153.20077" id="Fill-34" fill="#4A4E84" sketch:type="MSShapeGroup"></path>
            <path d="M129.302924,142.723565 L143.533524,142.94195 C144.04223,142.949862 144.448773,143.369225 144.440347,143.87879 C144.432975,144.388882 144.014319,144.795585 143.505087,144.7882 L126.738331,144.53078" id="Fill-35" fill="#4A4E84" sketch:type="MSShapeGroup"></path>
            <path d="M147.667944,104.264595 L154.268482,101.64081 C154.741905,101.45302 155.277468,101.684593 155.464941,102.158815 C155.652941,102.63251 155.421759,103.168977 154.948336,103.357295 L147.340919,106.381453" id="Fill-36" fill="#696CB4" sketch:type="MSShapeGroup"></path>
            <path d="M104.197815,82.2979125 L99.7153053,76.1388225 C99.4151373,75.7273725 99.5057143,75.14976 99.9169972,74.849085 C100.327754,74.549465 100.904919,74.63914 101.20456,75.0511175 L104.680717,79.8271025" id="Fill-37" fill="#696CB4" sketch:type="MSShapeGroup"></path>
            <path d="M143.553008,142.970435 C144.061714,142.991535 144.456672,143.42092 144.435608,143.930485 L144.171776,150.941487 C144.151238,151.450525 143.72205,151.846677 143.212818,151.826105 C142.705165,151.805532 142.308627,151.375092 142.330218,150.866055 L142.59405,143.855052 C142.614588,143.345488 143.044303,142.949335 143.553008,142.970435" id="Fill-38" fill="#4A4E84" sketch:type="MSShapeGroup"></path>
            <path d="M59.4227451,125.60408 C59.5765154,126.089907 59.3074174,126.60844 58.822409,126.76247 L52.1513053,128.900955 C51.6662969,129.054985 51.1486387,128.785433 50.9948683,128.29855 C50.8416246,127.813777 51.1101961,127.293662 51.5952045,127.140687 L58.2663081,125.002202 C58.7513165,124.848173 59.2695014,125.117725 59.4227451,125.60408" id="Fill-39" fill="#4A4E84" sketch:type="MSShapeGroup"></path>
            <path d="M156.647709,94.704185 C157.14009,94.8344775 157.432885,95.3387675 157.303339,95.83198 L155.538667,102.621433 C155.40912,103.114645 154.904627,103.40899 154.412246,103.278697 C153.920919,103.148933 153.626543,102.64306 153.757143,102.150903 L155.521289,95.3609225 C155.650835,94.8682375 156.155328,94.5738925 156.647709,94.704185" id="Fill-40" fill="#696CB4" sketch:type="MSShapeGroup"></path>
        </g>
    </g>
</svg>

<svg width="188" height="211" xmlns="http://www.w3.org/2000/svg"><g fill="none" fill-rule="evenodd"><path d="M76.682 88.574s93.965 62.49 94.71 63.033l2.41 1.8s-.25.472-.992 1.06l-1.035.822c-.585.43-73.086 53.806-73.967 54.41-2.35 1.608-4.838.862-5.963.06-.72-.51-89-59.7-89.49-60.056C.934 148.69.457 147.01.457 147.01l1.475-1.24 72.05-57.077 1.28-1.052 1.42.934" fill="#696CB4"/><path d="M98.927 103.364l-58.307 44.1s-2.827 1.905.807 4.51c3.863 2.77 35.312 22.634 35.312 22.634s2.853 1.76 5.622-.208c3.655-2.596 59.89-42.223 59.89-42.223l-43.325-28.813" fill="#4A4E84"/><path d="M75.643 86.267c.04-.168 20.177-84.13 20.313-84.396L96.373.24s1.037-.044 1.878.08c.914.137 1.864.735 1.864.735s84.12 56.597 85.355 57.474c2.26 1.605 2.35 4.046 2.26 4.56-.02.104-12.82 85.98-12.94 86.786 0 0-.1.923-.23 1.532-.263 1.23-.758 2-.758 2l-2.302-1.717c-.476-.36-93.887-62.494-94.95-63.18l-1.287-.867.38-1.373" fill="#8384E3"/><path d="M98.93 103.363l10.955-56.138s.61-3.358 4.448-1.066c4.08 2.436 34.847 23.346 34.847 23.346s2.752 1.914 2.062 5.244c-.91 4.394-8.986 57.427-8.986 57.427L98.93 103.363" fill="#696CB4"/><path d="M74.368 88.4c-.438.35-69.234 54.833-69.853 55.324l-4.03 3.36s-.55-1.407-.256-2.5c.223-.838.7-3.015.7-3.015.052-.48 17.272-72.626 17.44-73.384.205-.907.888-1.97 1.198-2.24.307-.266 71.587-62.447 71.992-62.8 0 0 1.142-1.033 1.99-1.71 1.252-1 2.825-1.198 2.825-1.198l-1.327 5.32-19.463 80.95-.322 1.133-.895.76" fill="#CCD0FF"/><path d="M99.953 104.062l-58.308 44.1s-2.827 1.905.807 4.51c3.863 2.77 35.313 22.635 35.313 22.635s2.853 1.758 5.623-.21c3.654-2.594 59.89-42.222 59.89-42.222l-43.325-28.813" fill="#D79245"/><path d="M103.352 108.47l-25.997 19.603s-2.827 1.905.807 4.51c3.863 2.77 25.943 16.996 25.943 16.996s2.853 1.758 5.623-.21c3.654-2.595 28.168-17.948 28.168-17.948l-34.544-22.95" fill="#BA7749"/><path d="M104.88 107.31l-25.997 19.6s-2.828 1.906.806 4.51c3.862 2.77 26.094 17.145 26.094 17.145s2.854 1.76 5.624-.208c3.653-2.596 28.167-17.95 28.167-17.95L104.88 107.31" fill="#D8A173"/><path d="M79.804 167.173c-1.002.93-2.47.972-3.28.095-.808-.876-.652-2.338.35-3.267 1.003-.928 2.47-.97 3.28-.095.81.877.652 2.34-.35 3.268M70.055 161.238c-1.002.93-2.47.972-3.28.095-.808-.875-.65-2.338.35-3.267 1.003-.928 2.47-.972 3.28-.096.81.877.653 2.34-.35 3.268M59.875 154.51c-1.002.927-2.47.97-3.28.094-.808-.876-.652-2.338.35-3.267 1.003-.93 2.47-.972 3.28-.096.81.877.653 2.34-.35 3.27M97.553 152.483c-1.002.93-2.47.972-3.28.095-.81-.875-.652-2.338.35-3.266 1.003-.93 2.47-.973 3.28-.096.81.876.652 2.338-.35 3.267M87.804 146.548c-1.002.93-2.47.972-3.28.095-.808-.875-.65-2.338.35-3.266 1.003-.93 2.47-.973 3.28-.096.81.877.653 2.34-.35 3.268M77.624 139.82c-1.002.928-2.47.97-3.28.094-.808-.876-.65-2.338.35-3.267 1.003-.93 2.47-.972 3.28-.096.81.877.653 2.34-.35 3.27M84.69 156.866c-1.003.928-2.47.97-3.28.095-.81-.874-.652-2.337.35-3.266 1.003-.928 2.47-.972 3.28-.095.81.874.652 2.337-.35 3.266M94.432 163.11c-1.002.928-2.47.972-3.28.095-.808-.876-.65-2.34.35-3.267 1.003-.928 2.47-.972 3.28-.095.81.875.652 2.338-.35 3.267M73.664 149.964c-1.003.928-2.472.972-3.28.095-.81-.877-.652-2.34.35-3.268 1.003-.93 2.47-.972 3.28-.096.808.876.652 2.34-.35 3.268M62.918 142.795c-1.003.928-2.472.972-3.28.095-.81-.875-.652-2.338.35-3.267 1.002-.928 2.47-.972 3.28-.096.808.877.652 2.34-.35 3.268" fill="#BC7835"/><path d="M99.953 104.062l10.954-56.138s.61-3.36 4.45-1.066c4.08 2.436 34.846 23.346 34.846 23.346s2.75 1.915 2.06 5.245c-.91 4.392-8.985 57.425-8.985 57.425l-43.325-28.813" fill="#EFB47F"/><path d="M123.373 61.273c0 1.31-.854 2.374-1.91 2.374-1.053 0-1.908-1.063-1.908-2.374 0-1.31.855-2.374 1.91-2.374 1.054 0 1.908 1.062 1.908 2.373M134.07 67.582c0 1.31-.864 2.373-1.93 2.373-1.068 0-1.933-1.062-1.933-2.373 0-1.31.865-2.374 1.932-2.374 1.066 0 1.93 1.063 1.93 2.374M143.614 74.063c0 1.31-.9 2.373-2.014 2.373-1.112 0-2.014-1.062-2.014-2.373 0-1.31.902-2.374 2.014-2.374 1.113 0 2.014 1.062 2.014 2.373M119.346 81.246c0 1.31-.855 2.374-1.91 2.374-1.053 0-1.908-1.063-1.908-2.374 0-1.31.855-2.374 1.91-2.374 1.053 0 1.908 1.063 1.908 2.374M130.043 87.554c0 1.312-.864 2.374-1.932 2.374-1.066 0-1.93-1.062-1.93-2.374 0-1.31.864-2.373 1.93-2.373 1.07 0 1.933 1.064 1.933 2.374M139.586 94.036c0 1.31-.9 2.374-2.014 2.374-1.112 0-2.013-1.063-2.013-2.374 0-1.312.9-2.374 2.012-2.374 1.113 0 2.014 1.062 2.014 2.374M116.37 68.656c0 1.31-.856 2.373-1.91 2.373-1.054 0-1.91-1.063-1.91-2.374 0-1.31.856-2.374 1.91-2.374 1.054 0 1.91 1.063 1.91 2.374M126.143 74.063c0 1.31-.864 2.373-1.932 2.373-1.066 0-1.93-1.062-1.93-2.373 0-1.31.864-2.374 1.93-2.374 1.07 0 1.933 1.062 1.933 2.373M136.946 80.227c0 1.31-.9 2.374-2.014 2.374-1.112 0-2.014-1.062-2.014-2.373 0-1.31.902-2.373 2.014-2.373 1.113 0 2.014 1.063 2.014 2.373M146.884 86.303c0 1.31-.902 2.373-2.014 2.373-1.113 0-2.014-1.062-2.014-2.373 0-1.31.9-2.374 2.014-2.374 1.112 0 2.014 1.062 2.014 2.373" fill="#D69144"/><path d="M105.292 105.216l3.903-19.158s.61-3.36 4.45-1.066c4.08 2.436 27.377 18.595 27.377 18.595s2.752 1.915 2.062 5.245c-.91 4.394-3.17 19.464-3.17 19.464l-34.622-23.08" fill="#F9D9BB"/><path d="M104.864 107.328l3.902-19.158s.61-3.36 4.45-1.066c4.08 2.436 27.467 18.595 27.467 18.595s2.752 1.914 2.062 5.244c-.91 4.393-3.17 19.464-3.17 19.464l-34.71-23.08" fill="#F8CDA1"/><path d="M84.8 115.522H62.33c-.51 0-.922-.413-.922-.923s.413-.924.922-.924h24.91M60.365 134.003l-2.657-7.823c-.165-.483.094-1.007.576-1.172.48-.164 1.005.094 1.17.577l2.46 7.245M116.394 151.82l-1.796 15.81c-.058.506-.514.87-1.02.812-.506-.057-.87-.514-.81-1.02l1.616-14.22M129.303 142.724l14.23.218c.51.008.916.427.907.937-.007.51-.426.916-.935.908l-16.767-.257" fill="#4A4E84"/><path d="M147.668 104.265l6.6-2.624c.474-.187 1.01.045 1.197.52.188.473-.043 1.01-.517 1.197l-7.607 3.024M104.198 82.298l-4.483-6.16c-.3-.41-.21-.988.202-1.29.41-.3.988-.21 1.288.203l3.476 4.777" fill="#696CB4"/><path d="M143.553 142.97c.51.022.904.45.883.96l-.264 7.01c-.02.51-.45.907-.96.886-.507-.02-.903-.45-.882-.96l.264-7.01c.02-.51.45-.907.96-.886M59.423 125.604c.154.486-.116 1.004-.6 1.158l-6.672 2.14c-.484.153-1-.117-1.155-.603-.153-.486.115-1.006.6-1.16l6.67-2.138c.486-.154 1.005.116 1.158.602" fill="#4A4E84"/><path d="M156.648 94.704c.492.13.785.635.655 1.128l-1.764 6.79c-.13.493-.635.787-1.128.657-.49-.13-.785-.637-.655-1.13l1.764-6.79c.13-.492.635-.786 1.128-.656" fill="#696CB4"/></g></svg>
